docs/img/icons/form/mail.svg

<svg width="34" height="35" viewBox="0 0 34 35" fill="none" xmlns="http://www.w3.org/2000/svg">
<path d="M14.0697 1.83033L1.21394 17.1512C-0.553728 19.2578 -0.161493 22.5241 2.08557 24.4096L12.2995 32.9801C14.5466 34.8657 17.8313 34.6847 19.599 32.5781L32.4548 17.2572C34.2224 15.1506 33.8302 11.8843 31.5831 9.99882L21.3692 1.42831C19.1221 -0.457197 15.8374 -0.276288 14.0697 1.83033ZM21.2793 5.26914L20.3452 17.3762C20.2499 18.1121 19.9721 18.858 19.49 19.4326C19.0079 20.0071 18.3215 20.4102 17.6133 20.6319L5.85244 23.6542C5.22463 23.7801 4.53144 23.3616 4.26179 22.6458C4.09428 22.0158 4.47423 21.3555 5.18239 21.1339L16.9433 18.1115C17.3886 17.9957 17.7904 17.5169 17.8271 17.0582L18.7613 4.95117C18.8566 4.21527 19.4408 3.72645 20.1926 3.8677C20.7618 4.01901 21.2943 4.629 21.2793 5.26914Z" fill="#00C35B"/>
</svg>

<svg width="34" height="35" fill="none" xmlns="http://www.w3.org/2000/svg"><path d="M14.07 1.83L1.214 17.151c-1.768 2.107-1.375 5.373.872 7.259l10.213 8.57c2.248 1.886 5.532 1.705 7.3-.402l12.856-15.32c1.767-2.107 1.375-5.374-.872-7.26L21.37 1.429c-2.247-1.885-5.532-1.704-7.3.402zm7.21 3.44l-.935 12.106c-.095.736-.373 1.482-.855 2.057-.482.574-1.168.977-1.877 1.199l-11.76 3.022c-.628.126-1.322-.292-1.591-1.008-.168-.63.212-1.29.92-1.512l11.761-3.023c.446-.115.847-.594.884-1.053l.934-12.107c.096-.736.68-1.225 1.432-1.083.569.151 1.101.761 1.086 1.401z" fill="#00C35B"/></svg>
